X: 2348
M: C
L: 1/8
K: G
|:\
vG>vAuB>uc d>BA>G | g>fg>e e2d2 |\
(3Bdc (3BAG (3ced (3cBA | (3Bdc (3BAG (3FGA (3DEF |\
(3Bdc (3BAG (3ced (3cBA | (3fed (3cBA G2g2 ::\
d>ef>g (3fag (3fed | (3gba (3gfe (3fag (3fed |\
d>ef>g (3fag (3fed |
(3bd'^c' (3bag (3fag (3fed |\
(3Bdc (3BAG (3ced (3cBA | (3fag (3fed (3gba (3gfe |\
(3dba (3gfe (3ded (3cBA | G2g2 G,2z2 :|


